X: 50
T: No_55_Song_in_Praise_of_the_Chiefs.krn
N: Derived from No_55_Song_in_Praise_of_the_Chiefs.krn
%%abc-version 2.0
%%abcx-abcm2ps-target-version 5.9.1 (29 Sep 2008)
%%abc-creator hum2abc beta
%%abcx-conversion-date 2019/03/15 08:27:55
%%humdrum-veritas 533839179
%%humdrum-veritas-data 1441363440
%%linebreak <none>
%%barnumbers 0
L: 1/8
M: 3/8
%%staves {1 2}
V: 1 clef=bass
V: 2 clef=bass
K: Ab
[V:1] [K:clef=bass][M:3/8]E2E | 
[V:2] [K:clef=bass][M:3/8]z3 | 
[V:1] [M:5/8]FE/ z/ FFE | 
[V:2] [M:5/8](3:2:1z15/ | 
[V:1] [M:7/8]FEEC2z2 | 
[V:2] [M:7/8]z7 | 
[V:1] [M:5/8]C3E2 | 
[V:2] [M:5/8](3:2:1z15/ | 
[V:1] [M:3/8]E2C ]|:  
[V:2] [M:3/8]z3 ]|:  
[V:1] [M:7/8]ECCB,2z2 | 
[V:2] [M:7/8]z7 | 
[V:1] [M:3/8]B,2B, | 
[V:2] [M:3/8]G,, z G,, | 
[V:1] [M:5/8]CCB,/ z/ CB, | 
[V:2] [M:5/8]z G,, z G,, z | 
[V:1] [M:7/8]CB,B,A,2z2 | 
[V:2] [M:7/8]G,, z G,, z z z z | 
[V:1] [M:3/8]A,2A, | 
[V:2] [M:3/8]G,, z G,, | 
[V:1] [M:5/8]B,2B,B,A, | 
[V:2] [M:5/8]G,, z z G,, z | 
[V:1] [M:7/8]B,A,A,E,2E, z | 
[V:2] [M:7/8]G,, z z G,, z G,, z | 
[V:1] [M:3/4]E,3/E,/E,2=D,3/D,/ | 
[V:2] [M:3/4]z6 | 
[V:1] [M:2/4]E,3/E,/ E,/=D,3/ | 
[V:2] [M:2/4]z4 | 
[V:1] [M:3/4]E,2E,2E, z | 
[V:2] [M:3/4]z6 | 
[V:1] [M:5/8]E/C3/EE3/C/ :|]  
[V:2] [M:5/8](3:2:1z15/ :|]  



